assets/Shallow pan of food/Flat/shallow_pan_of_food_flat.svg

<svg width="32" height="32" viewBox="0 0 32 32" fill="none" xmlns="http://www.w3.org/2000/svg">
<path d="M12.0528 6.72014L9.98021 4.64757C8.77335 3.44071 6.8238 3.45376 5.62999 4.64758L4.00036 6.2772C2.7935 7.48406 2.80653 9.4336 4.00036 10.6274L6.37279 12.9999C5.29732 16.4613 6.13008 20.3879 8.87109 23.1289C11.6121 25.8699 15.5387 26.7027 19.0001 25.6272L21.3727 27.9998C22.5665 29.1936 24.516 29.2066 25.7229 27.9997L27.3525 26.3701C28.5463 25.1763 28.5594 23.2268 27.3525 22.0199L25.2799 19.9473C26.8404 16.2751 26.1234 11.8656 23.1289 8.8711C20.1344 5.87662 15.7249 5.15963 12.0528 6.72014ZM8.49938 6.1284L10.1547 7.78372C9.70462 8.10475 9.27498 8.46721 8.87109 8.8711C8.23748 9.5047 7.70584 10.2017 7.27617 10.9416L5.48118 9.1466C5.09995 8.76538 5.09739 8.14181 5.48118 7.75803L7.11081 6.1284C7.49204 5.74717 8.1156 5.74461 8.49938 6.1284ZM24.2163 21.8453L25.8717 23.5007C26.2555 23.8845 26.2529 24.5081 25.8717 24.8893L24.2421 26.5189C23.8583 26.9027 23.2347 26.9002 22.8535 26.5189L21.0584 24.7239C21.7983 24.2942 22.4953 23.7625 23.1289 23.1289C23.5328 22.725 23.8953 22.2954 24.2163 21.8453Z" fill="#533566"/>
<path d="M24 24C19.5817 28.4183 12.4183 28.4183 7.99999 24C3.58171 19.5817 3.58171 12.4183 7.99999 7.99999C12.4183 3.58171 19.5817 3.58171 24 7.99999C28.4183 12.4183 28.4183 19.5817 24 24ZM22.0585 22.0585C25.4045 18.7125 25.4045 13.2875 22.0585 9.94152C18.7125 6.59552 13.2875 6.59551 9.94151 9.94152C6.59551 13.2875 6.5955 18.7125 9.94151 22.0585C13.2875 25.4045 18.7125 25.4045 22.0585 22.0585Z" fill="#635994"/>
<path d="M15.9999 22.8929C16.7641 22.8929 17.5828 23.2281 18.2845 23.0098C19.0019 22.7759 19.4541 22.0118 20.0623 21.5751C20.6705 21.1385 21.5282 20.9358 21.9726 20.3354C22.4093 19.7428 22.3313 18.8539 22.5652 18.1365C22.7914 17.4426 23.3762 16.7798 23.3762 16.0001C23.3762 15.2359 22.7914 14.5576 22.5652 13.8636C22.3313 13.1463 22.4015 12.2652 21.9726 11.6648C21.536 11.0566 20.6705 10.8617 20.0623 10.425C19.4697 9.98838 19.0019 9.22425 18.2845 8.99033C17.5906 8.76421 16.7797 9.10729 15.9999 9.10729C15.2358 9.10729 14.4171 8.77201 13.7153 8.99033C12.998 9.22425 12.5457 9.98838 11.9376 10.425C11.3294 10.8617 10.4717 11.0644 10.0272 11.6648C9.59058 12.2574 9.66855 13.1463 9.43463 13.8636C9.20851 14.5576 8.62372 15.2204 8.62372 16.0001C8.62372 16.7642 9.20852 17.4426 9.43464 18.1365C9.66855 18.8539 9.59838 19.735 10.0272 20.3354C10.4639 20.9435 11.3294 21.1385 11.9376 21.5751C12.5302 22.0118 12.998 22.7759 13.7153 23.0098C14.4249 23.2359 15.2358 22.8929 15.9999 22.8929Z" fill="#FCD53F"/>
<path d="M15.2607 12.2799C15.3602 12.6123 15.1714 12.9625 14.839 13.0619L12.5466 13.7481C12.2142 13.8476 11.8641 13.6588 11.7646 13.3264C11.6651 12.994 11.8539 12.6439 12.1863 12.5444L14.4787 11.8582C14.8111 11.7587 15.1612 11.9475 15.2607 12.2799Z" fill="#44911B"/>
<path d="M19.3673 14.452C19.7098 14.5074 19.9426 14.83 19.8872 15.1725L19.5051 17.5351C19.4497 17.8776 19.1272 18.1103 18.7847 18.055C18.4421 17.9996 18.2094 17.677 18.2648 17.3345L18.6468 14.9719C18.7022 14.6294 19.0248 14.3966 19.3673 14.452Z" fill="#44911B"/>
<path d="M15.0275 20.4697C15.274 20.7139 15.6718 20.7121 15.916 20.4656C16.1602 20.2191 16.1584 19.8213 15.9119 19.5771L14.2121 17.8929C13.9656 17.6487 13.5679 17.6505 13.3236 17.897C13.0794 18.1435 13.0813 18.5413 13.3277 18.7855L15.0275 20.4697Z" fill="#44911B"/>
<path d="M17.0527 12.5926C17.3111 12.851 17.73 12.851 17.9883 12.5926C18.2467 12.3342 18.2467 11.9153 17.9883 11.6569C17.73 11.3985 17.3111 11.3985 17.0527 11.6569C16.7943 11.9153 16.7943 12.3342 17.0527 12.5926Z" fill="#F8312F"/>
<path d="M18.3234 20.6317C18.5818 20.89 19.0007 20.89 19.2591 20.6317C19.5175 20.3733 19.5175 19.9544 19.2591 19.696C19.0007 19.4376 18.5818 19.4376 18.3234 19.696C18.065 19.9544 18.065 20.3733 18.3234 20.6317Z" fill="#F8312F"/>
<path d="M11.3607 17.8012C11.1023 18.0596 10.6834 18.0596 10.425 17.8012C10.1666 17.5428 10.1666 17.1239 10.425 16.8655C10.6834 16.6072 11.1023 16.6072 11.3607 16.8655C11.619 17.1239 11.619 17.5428 11.3607 17.8012Z" fill="#F8312F"/>
</svg>

<svg xmlns="http://www.w3.org/2000/svg" width="32" height="32" fill="none"><path fill="#533566" d="M12.053 6.72 9.98 4.648a3.078 3.078 0 0 0-4.35 0L4 6.278a3.078 3.078 0 0 0 0 4.35L6.373 13A10.08 10.08 0 0 0 8.87 23.129a10.08 10.08 0 0 0 10.13 2.498L21.372 28a3.078 3.078 0 0 0 4.35 0l1.63-1.63a3.078 3.078 0 0 0 0-4.35l-2.073-2.073a10.085 10.085 0 0 0-2.151-11.076 10.085 10.085 0 0 0-11.076-2.15Zm-3.554-.592 1.656 1.656a10.152 10.152 0 0 0-2.879 3.158L5.481 9.147a.984.984 0 0 1 0-1.389l1.63-1.63a.984.984 0 0 1 1.388 0Zm15.717 15.717 1.656 1.656a.984.984 0 0 1 0 1.388l-1.63 1.63a.984.984 0 0 1-1.389 0l-1.795-1.795a10.148 10.148 0 0 0 3.158-2.879Z"/><path fill="#635994" d="M24 24c-4.418 4.418-11.582 4.418-16 0-4.418-4.418-4.418-11.582 0-16 4.418-4.418 11.582-4.418 16 0 4.418 4.418 4.418 11.582 0 16Zm-1.942-1.942A8.568 8.568 0 1 0 9.941 9.942a8.568 8.568 0 0 0 12.117 12.116Z"/><path fill="#FCD53F" d="M16 22.893c.764 0 1.583.335 2.285.117.717-.234 1.17-.998 1.777-1.435.608-.436 1.466-.64 1.91-1.24.437-.592.36-1.481.593-2.198.226-.694.811-1.357.811-2.137 0-.764-.585-1.442-.81-2.136-.235-.718-.165-1.599-.593-2.2-.437-.607-1.302-.802-1.91-1.239-.593-.437-1.061-1.2-1.778-1.435-.694-.226-1.505.117-2.285.117-.764 0-1.583-.335-2.285-.117-.717.234-1.17.998-1.777 1.435-.609.437-1.466.64-1.91 1.24-.437.592-.36 1.481-.593 2.199-.226.694-.811 1.356-.811 2.136 0 .764.585 1.443.81 2.137.235.717.164 1.598.593 2.198.437.608 1.302.803 1.91 1.24.593.437 1.061 1.2 1.778 1.435.71.226 1.52-.117 2.285-.117Z"/><path fill="#44911B" d="M15.26 12.28c.1.332-.089.683-.421.782l-2.292.686a.628.628 0 1 1-.36-1.204l2.292-.686c.332-.1.682.09.782.422ZM19.367 14.452a.628.628 0 0 1 .52.72l-.382 2.363a.628.628 0 0 1-1.24-.2l.382-2.363a.628.628 0 0 1 .72-.52ZM15.027 20.47a.628.628 0 0 0 .885-.893l-1.7-1.684a.628.628 0 0 0-.884.892l1.7 1.685Z"/><path fill="#F8312F" d="M17.053 12.593a.661.661 0 1 0 .935-.936.661.661 0 0 0-.935.936ZM18.323 20.632a.662.662 0 1 0 .936-.936.662.662 0 0 0-.936.936ZM11.36 17.801a.662.662 0 1 1-.935-.935.662.662 0 0 1 .936.935Z"/></svg>
